svg/color/aave.svg

<svg width="64" height="65" viewBox="0 0 64 65" fill="none" xmlns="http://www.w3.org/2000/svg">
<g clip-path="url(#clip0_11313_1768)">
<rect y="0.303711" width="64" height="64" rx="32" fill="white"/>
<mask id="mask0_11313_1768" style="mask-type:luminance" maskUnits="userSpaceOnUse" x="0" y="0" width="64" height="65">
<path d="M64 0.303711H0V64.3037H64V0.303711Z" fill="white"/>
</mask>
<g mask="url(#mask0_11313_1768)">
<path d="M32.0001 64.3037C49.6732 64.3037 64.0001 49.9768 64.0001 32.3037C64.0001 14.6306 49.6732 0.303711 32.0001 0.303711C14.3269 0.303711 6.10352e-05 14.6306 6.10352e-05 32.3037C6.10352e-05 49.9768 14.3269 64.3037 32.0001 64.3037Z" fill="url(#paint0_linear_11313_1768)"/>
<path d="M45.5839 44.6717L35.0879 19.2957C34.4959 17.9837 33.6159 17.3437 32.4559 17.3437H31.5279C30.3679 17.3437 29.4879 17.9837 28.8959 19.2957L24.3279 30.3517H20.8719C19.8399 30.3597 18.9999 31.1917 18.9919 32.2317V32.2557C18.9999 33.2877 19.8399 34.1277 20.8719 34.1357H22.7279L18.3679 44.6717C18.2879 44.9037 18.2399 45.1437 18.2399 45.3917C18.2399 45.9837 18.4239 46.4477 18.7519 46.8077C19.0799 47.1677 19.5519 47.3437 20.1439 47.3437C20.5359 47.3357 20.9119 47.2157 21.2239 46.9837C21.5599 46.7517 21.7919 46.4157 21.9759 46.0317L26.7759 34.1277H30.1039C31.1359 34.1197 31.9759 33.2877 31.9839 32.2477V32.1997C31.9759 31.1677 31.1359 30.3277 30.1039 30.3197H28.3279L31.9919 21.1917L41.9759 46.0237C42.1599 46.4077 42.3919 46.7437 42.7279 46.9757C43.0399 47.2077 43.4239 47.3277 43.8079 47.3357C44.3999 47.3357 44.8639 47.1597 45.1999 46.7997C45.5359 46.4397 45.7119 45.9757 45.7119 45.3837C45.7199 45.1437 45.6799 44.8957 45.5839 44.6717Z" fill="white"/>
</g>
</g>
<rect x="0.5" y="0.803711" width="63" height="63" rx="31.5" stroke="#070B14" stroke-opacity="0.15"/>
<defs>
<linearGradient id="paint0_linear_11313_1768" x1="55.8588" y1="12.2284" x2="8.2428" y2="52.2924" gradientUnits="userSpaceOnUse">
<stop stop-color="#B6509E"/>
<stop offset="1" stop-color="#2EBAC6"/>
</linearGradient>
<clipPath id="clip0_11313_1768">
<rect y="0.303711" width="64" height="64" rx="32" fill="white"/>
</clipPath>
</defs>
</svg>

<svg xmlns="http://www.w3.org/2000/svg" width="64" height="65" fill="none" viewBox="0 0 64 65"><g clip-path="url(#aave_svg-a)"><rect width="64" height="64" y=".304" fill="#fff" rx="32"/><mask id="aave_svg-b" width="64" height="65" x="0" y="0" maskUnits="userSpaceOnUse" style="mask-type:luminance"><path fill="#fff" d="M64 .304H0v64h64z"/></mask><g mask="url(#aave_svg-b)"><path fill="url(#aave_svg-c)" d="M32 64.304c17.673 0 32-14.327 32-32s-14.327-32-32-32-32 14.327-32 32 14.327 32 32 32"/><path fill="#fff" d="M45.584 44.672 35.088 19.296c-.592-1.312-1.472-1.952-2.632-1.952h-.928c-1.16 0-2.04.64-2.632 1.952l-4.568 11.056h-3.456a1.893 1.893 0 0 0-1.88 1.88v.024a1.9 1.9 0 0 0 1.88 1.88h1.856l-4.36 10.536a2.2 2.2 0 0 0-.128.72c0 .592.184 1.056.512 1.416s.8.536 1.392.536a1.86 1.86 0 0 0 1.08-.36c.336-.232.568-.568.752-.952l4.8-11.904h3.328a1.893 1.893 0 0 0 1.88-1.88V32.2a1.9 1.9 0 0 0-1.88-1.88h-1.776l3.664-9.128 9.984 24.832c.184.384.416.72.752.952a1.9 1.9 0 0 0 1.08.36c.592 0 1.056-.176 1.392-.536s.512-.824.512-1.416a1.7 1.7 0 0 0-.128-.712"/></g></g><rect width="63" height="63" x=".5" y=".804" stroke="#070B14" stroke-opacity=".15" rx="31.5"/><defs><linearGradient id="aave_svg-c" x1="55.859" x2="8.243" y1="12.228" y2="52.292" gradientUnits="userSpaceOnUse"><stop stop-color="#B6509E"/><stop offset="1" stop-color="#2EBAC6"/></linearGradient><clipPath id="aave_svg-a"><rect width="64" height="64" y=".304" fill="#fff" rx="32"/></clipPath></defs></svg>
